picto/mobile-phone-framed.svg

<svg class="color-immutable" width="30" height="30" viewBox="0 0 30 30" fill="none" xmlns="http://www.w3.org/2000/svg"><path d="M30 30H0V0H30V30Z" fill="#2D327D"/><path d="M25.5 3C26.325 3 27 3.675 27 4.5V25.5C27 26.325 26.325 27 25.5 27H4.5C3.675 27 3 26.325 3 25.5V4.5C3 3.675 3.675 3 4.5 3H25.5ZM25.5 2.625H4.5C3.46613 2.625 2.625 3.46613 2.625 4.5V25.5C2.625 26.5339 3.46613 27.375 4.5 27.375H25.5C26.5339 27.375 27.375 26.5339 27.375 25.5V4.5C27.375 3.46613 26.5339 2.625 25.5 2.625Z" fill="white"/><path d="M6.26097 19.1819L6.25798 19.183C6.0809 19.6022 6.00418 20.0685 6.0014 20.4647C5.99825 20.8593 6.0014 24 6.0014 24H13.8228C13.9065 23.8115 14.1391 23.3905 14.3874 22.8562C14.187 22.9448 13.9598 22.9968 13.7138 23.0037C13.6955 23.0041 13.6771 23.0044 13.6588 23.0044C13.3587 23.0044 13.0489 22.9358 12.763 22.8059L9.25385 21.2105C8.75008 20.9816 8.36225 20.5835 8.18983 20.1179C8.0567 19.7585 8.06555 19.3841 8.2145 19.0634L9.80157 15.6512L10.6741 13.7753C10.8386 13.2703 10.6953 12.7118 10.2966 12.3486C10.2403 12.2972 10.1747 12.2548 10.1021 12.2243C9.75703 12.0785 9.3569 12.2406 9.21073 12.587L6.26097 19.1819Z" fill="white"/><path d="M15.5155 23.9674C15.0708 23.9622 14.7148 23.5981 14.7192 23.1537C14.7246 22.7089 15.089 22.3512 15.5337 22.3569H17.0115C17.456 22.3515 17.8207 22.7075 17.8264 23.153C17.8316 23.5975 17.4758 23.9626 17.0305 23.9674H15.5155Z" fill="white"/><path d="M16.4342 22.0015C15.9894 21.9964 15.6334 21.6322 15.6377 21.1879C15.6431 20.743 16.0076 20.3854 16.4523 20.3911H17.93C18.3745 20.3857 18.7394 20.7417 18.7451 21.1872C18.7502 21.6316 18.3944 21.9968 17.9492 22.0015H16.4342Z" fill="white"/><path d="M17.3424 20.0477C16.8976 20.0426 16.5416 19.6784 16.5459 19.2341C16.5513 18.7892 16.9158 18.4316 17.3605 18.4373H18.8383C19.2828 18.4319 19.6476 18.7879 19.6533 19.2334C19.6585 19.6778 19.3027 20.043 18.8574 20.0477H17.3424Z" fill="white"/><path d="M18.2448 18.1526C17.8001 18.1474 17.4441 17.7825 17.4484 17.3381C17.4539 16.8933 17.8183 16.5355 18.263 16.5412H19.7408C20.1852 16.5357 20.5501 16.8918 20.5558 17.3373C20.561 17.7818 20.2052 18.1478 19.7599 18.1525L18.2448 18.1526Z" fill="white"/><path d="M19.5102 10.8225C19.3471 10.5012 19.0549 10.2322 18.6876 10.0654L15.1779 8.4701C14.9365 8.36038 14.6764 8.30255 14.4255 8.30255L14.3798 8.30315C13.8856 8.31688 13.4877 8.5463 13.3152 8.91688L8.52793 19.2097C8.41671 19.4491 8.41183 19.7215 8.51406 19.9973C8.65453 20.3767 8.97598 20.7037 9.39613 20.8946L12.9053 22.4899C13.1464 22.5994 13.4065 22.6573 13.6576 22.6573L13.7029 22.6566C14.1977 22.6427 14.596 22.4136 14.7682 22.0435L19.5556 11.7502C19.6867 11.4682 19.6706 11.1388 19.5102 10.8225ZM12.1977 20.7496C12.0784 20.9967 11.7771 21.0989 11.525 20.9782C11.2735 20.8576 11.166 20.56 11.2854 20.3131C11.4049 20.0657 11.7058 19.9641 11.9574 20.0839C12.2095 20.2046 12.3172 20.5024 12.1977 20.7496ZM14.5718 20.3421L9.95428 18.2652L13.9765 9.54418L18.5944 11.6205L14.5718 20.3421Z" fill="white"/></svg>

<svg class="color-immutable" width="30" height="30" viewBox="0 0 30 30" fill="none" xmlns="http://www.w3.org/2000/svg"><g clip-path="url(#a)"><path d="M30 30H0V0h30v30Z" fill="#2D327D"/><path d="M25.5 3c.825 0 1.5.675 1.5 1.5v21c0 .825-.675 1.5-1.5 1.5h-21c-.825 0-1.5-.675-1.5-1.5v-21C3 3.675 3.675 3 4.5 3h21Zm0-.375h-21A1.877 1.877 0 0 0 2.625 4.5v21c0 1.034.841 1.875 1.875 1.875h21a1.877 1.877 0 0 0 1.875-1.875v-21A1.877 1.877 0 0 0 25.5 2.625Z" fill="#fff"/><path d="m6.261 19.182-.003.001a3.45 3.45 0 0 0-.257 1.282c-.003.394 0 3.535 0 3.535h7.822c.083-.189.316-.61.564-1.144a1.785 1.785 0 0 1-.728.148c-.3 0-.61-.068-.896-.198l-3.51-1.596c-.503-.228-.89-.627-1.063-1.092a1.363 1.363 0 0 1 .024-1.055l1.588-3.412.872-1.876a1.359 1.359 0 0 0-.377-1.426.681.681 0 0 0-1.086.238l-2.95 6.595ZM15.515 23.967a.806.806 0 0 1 .019-1.61h1.478a.806.806 0 0 1 .018 1.61h-1.515ZM16.434 22.002a.806.806 0 0 1 .018-1.61h1.478a.806.806 0 0 1 .02 1.61h-1.516ZM17.342 20.048a.806.806 0 0 1 .018-1.61h1.478a.806.806 0 0 1 .02 1.61h-1.516ZM18.245 18.153a.806.806 0 0 1 .018-1.612h1.478a.806.806 0 0 1 .019 1.611h-1.515Z" fill="#fff"/><path d="M19.51 10.822a1.7 1.7 0 0 0-.822-.757l-3.51-1.595a1.834 1.834 0 0 0-.753-.167h-.045c-.494.014-.892.243-1.065.614L8.528 19.21c-.111.24-.116.511-.014.787.14.38.462.707.882.898l3.51 1.595c.24.11.5.167.752.167h.045c.495-.014.893-.243 1.065-.613l4.788-10.294c.13-.282.115-.611-.046-.928Zm-7.312 9.928a.504.504 0 0 1-.673.228.499.499 0 0 1-.24-.665.504.504 0 0 1 .672-.23c.252.122.36.42.24.667Zm2.374-.408-4.618-2.077 4.022-8.72 4.618 2.075-4.022 8.722Z" fill="#fff"/></g><defs><clipPath id="a"><path fill="#fff" d="M0 0h30v30H0z"/></clipPath></defs></svg>
